X:1  % Icy_Sidewalk.abc
T:Icy Sidewalk, The
C:Barry Schwartz
R:hornpipe
H:Written January 11, 2004.
H:This piece reminded me of people walking on a slippery sidewalk.
N:Copyright  2004 by Barry B. Schwartz
%%abc-copyright Copyright (C) 2004 by Barry B. Schwartz
% $Revision: 1.13 $   $Date: 2004/03/19 20:40:29 $
M:C|
L:1/8
N:Composer's website: http://www.winternet.com/~trashman/Music.html
K:G major
|:d2|BBcB AABA|G2B2G2 dc|BBcB AABA|G2B2G2 d2|
eege agfe|dded gfed|ccdc BABc|d2G2G2:|
|:ga|bbag a(3bc'ba|ggab g2 d'c'|bbag a(3bc'ba|ggab g2 f2|
eege agfe|ggfe dBcd|eecA FGAB|d2G2G2:|
